icons/unfold-16.svg

<svg xmlns="http://www.w3.org/2000/svg" width="16" height="16" viewBox="0 0 16 16"><path d="M8.177.677l2.896 2.896a.25.25 0 01-.177.427H8.75v1.25a.75.75 0 01-1.5 0V4H5.104a.25.25 0 01-.177-.427L7.823.677a.25.25 0 01.354 0zM7.25 10.75a.75.75 0 011.5 0V12h2.146a.25.25 0 01.177.427l-2.896 2.896a.25.25 0 01-.354 0l-2.896-2.896A.25.25 0 015.104 12H7.25v-1.25zm-5-2a.75.75 0 000-1.5h-.5a.75.75 0 000 1.5h.5zM6 8a.75.75 0 01-.75.75h-.5a.75.75 0 010-1.5h.5A.75.75 0 016 8zm2.25.75a.75.75 0 000-1.5h-.5a.75.75 0 000 1.5h.5zM12 8a.75.75 0 01-.75.75h-.5a.75.75 0 010-1.5h.5A.75.75 0 0112 8zm2.25.75a.75.75 0 000-1.5h-.5a.75.75 0 000 1.5h.5z"/></svg>

<svg xmlns="http://www.w3.org/2000/svg" width="16" height="16" viewBox="0 0 16 16">
  <defs/>
  <path d="M8.177,0.677 L11.073,3.573 A0.25 0.25 0 0 1 10.896,4 L8.75,4 L8.75,5.25 A0.75 0.75 0 0 1 7.25,5.25 L7.25,4 L5.104,4 A0.25 0.25 0 0 1 4.927,3.573 L7.823,0.677 A0.25 0.25 0 0 1 8.177,0.677 Z M7.25,10.75 A0.75 0.75 0 0 1 8.75,10.75 L8.75,12 L10.896,12 A0.25 0.25 0 0 1 11.073,12.427 L8.177,15.323 A0.25 0.25 0 0 1 7.823,15.323 L4.927,12.427 A0.25 0.25 0 0 1 5.104,12 L7.25,12 L7.25,10.75 Z M2.25,8.75 A0.75 0.75 0 0 0 2.25,7.25 L1.75,7.25 A0.75 0.75 0 0 0 1.75,8.75 L2.25,8.75 Z M6,8 A0.75 0.75 0 0 1 5.25,8.75 L4.75,8.75 A0.75 0.75 0 0 1 4.75,7.25 L5.25,7.25 A0.75 0.75 0 0 1 6,8 Z M8.25,8.75 A0.75 0.75 0 0 0 8.25,7.25 L7.75,7.25 A0.75 0.75 0 0 0 7.75,8.75 L8.25,8.75 Z M12,8 A0.75 0.75 0 0 1 11.25,8.75 L10.75,8.75 A0.75 0.75 0 0 1 10.75,7.25 L11.25,7.25 A0.75 0.75 0 0 1 12,8 Z M14.25,8.75 A0.75 0.75 0 0 0 14.25,7.25 L13.75,7.25 A0.75 0.75 0 0 0 13.75,8.75 L14.25,8.75 Z"/>
</svg>
